app/icons/mlc.svg

<?xml version="1.0"?>
<svg width="100" height="100" xmlns="http://www.w3.org/2000/svg" xmlns:svg="http://www.w3.org/2000/svg" preserveAspectRatio="xMidYMid meet" version="1.0">
 <metadata>Created by potrace 1.10, written by Peter Selinger 2001-2011</metadata>
 <g class="layer">
  <title>Layer 1</title>
  <g fill="#000000" id="svg_1" transform="translate(1.73272 0.683991) scale(1.0651 1.08957) translate(-1.73272 -0.683991) translate(16 -20) matrix(0.039425 0 0 -0.0379961 -56.5137 150.653)">
   <path d="m2145,3389c-269,-22 -514,-134 -707,-325c-72,-71 -188,-219 -188,-239c0,-3 -12,-24 -26,-47c-15,-23 -30,-53 -34,-67c-5,-14 -18,-51 -29,-81c-47,-122 -63,-218 -64,-375c-1,-155 8,-218 54,-366c25,-82 90,-213 152,-305c55,-84 192,-221 284,-285c76,-52 212,-124 257,-135c16,-4 41,-13 55,-20c14,-8 38,-14 53,-14c15,0 49,-7 75,-16c62,-21 320,-24 408,-5c33,7 80,17 105,21c41,7 152,49 190,70c8,5 33,19 55,30c22,12 46,29 53,38c8,10 29,16 60,17c72,2 122,39 122,92c0,15 25,50 68,97c203,218 297,470 296,791c-1,96 -6,165 -19,220c-24,107 -29,115 -71,115c-56,0 -61,-31 -23,-150c17,-54 29,-109 27,-122c-5,-39 -32,-32 -68,19c-49,69 -118,141 -167,175c-24,16 -43,34 -43,39c0,6 14,23 32,37c17,15 46,42 65,60c21,20 44,32 61,32c51,0 111,57 112,106c0,34 -48,91 -86,100c-54,14 -114,-37 -114,-96c0,-33 -9,-47 -68,-109c-37,-39 -72,-71 -78,-71c-7,0 -17,7 -25,16c-16,20 -162,105 -209,122c-99,36 -124,43 -177,50c-79,10 -83,33 -15,84c27,21 97,87 155,148c59,60 111,110 116,110c15,0 30,-25 40,-69c11,-51 30,-73 82,-99c37,-18 40,-18 77,-2c57,26 92,76 92,132c0,38 -6,51 -35,81c-31,32 -42,37 -80,37c-24,0 -55,-5 -69,-11c-21,-10 -33,-6 -93,28c-38,22 -78,42 -88,45c-11,4 -45,16 -75,28c-87,34 -193,59 -277,65c-43,3 -87,7 -98,9c-11,1 -65,-1 -120,-5zm315,-122c120,-26 225,-61 227,-77c1,-8 -17,-30 -40,-48c-23,-19 -100,-91 -172,-162l-130,-128l-87,1c-47,1 -90,5 -93,9c-4,4 -8,100 -9,214c-1,185 1,207 16,213c25,9 204,-4 288,-22zm-403,-1c4,-8 7,-107 5,-220l-3,-205l-32,-6c-100,-19 -137,-30 -184,-52c-29,-14 -58,-23 -64,-21c-9,3 -12,56 -12,208c1,231 -1,223 84,250c24,7 76,24 114,36c83,28 82,28 92,10zm-383,-352c-1,-113 -3,-207 -5,-208c-2,-2 -24,-14 -49,-26c-107,-54 -292,-221 -368,-333c-21,-32 -38,-47 -50,-45c-33,6 -29,27 45,263c58,186 139,311 306,472c56,54 102,91 110,88c10,-5 13,-47 11,-211zm712,-173c11,-5 44,-21 74,-35c136,-61 249,-233 264,-401c15,-159 -52,-330 -172,-436c-94,-83 -184,-112 -330,-107c-102,3 -113,5 -185,41c-200,99 -310,310 -278,535c15,101 78,218 155,289c73,67 159,114 226,125c60,9 223,2 246,-11zm-506,-53c0,-7 -26,-41 -58,-75c-143,-152 -178,-349 -101,-563c20,-57 58,-111 126,-178c58,-58 70,-82 41,-82c-41,0 -280,148 -393,243c-96,82 -215,199 -215,213c0,10 88,103 182,189c72,68 184,148 338,243c39,24 80,29 80,10zm822,-27c73,-39 213,-135 273,-187c103,-88 225,-211 225,-226c0,-30 -344,-338 -376,-338c-4,0 -15,-6 -23,-14c-9,-8 -56,-35 -104,-60c-84,-44 -127,-56 -127,-37c0,4 33,42 73,83c86,89 121,154 147,282c17,78 18,103 9,147c-6,30 -14,71 -19,91c-12,60 -56,139 -115,206c-30,35 -55,67 -55,73c0,17 40,9 92,-20zm-1486,-469c6,-4 25,-27 43,-52c77,-107 234,-247 344,-305c23,-13 43,-30 45,-38c4,-19 -202,-227 -216,-218c-34,23 -162,255 -183,336c-5,16 -18,64 -30,105c-39,140 -41,150 -35,165c6,16 15,19 32,7zm2082,-26c2,-16 -6,-58 -17,-95c-11,-36 -32,-104 -47,-151c-39,-128 -76,-199 -169,-324c-59,-80 -80,-91 -119,-61c-12,9 -33,13 -60,9c-40,-4 -43,-2 -130,81c-57,54 -86,90 -83,99c3,8 28,21 54,29c137,41 369,220 487,377c60,80 78,88 84,36zm-1473,-442c41,-16 131,-38 198,-49l37,-6l0,-86l0,-86l-102,-106c-56,-58 -110,-107 -119,-109c-10,-2 -48,13 -86,33c-77,42 -253,170 -253,185c0,6 51,61 113,124c123,124 134,129 212,100zm806,-96c35,-40 71,-78 79,-84c58,-44 75,-69 76,-108c0,-23 4,-53 8,-67c7,-25 4,-29 -88,-73c-53,-25 -102,-46 -110,-46c-8,0 -39,-10 -70,-21c-30,-12 -61,-19 -68,-16c-10,3 -13,55 -13,232l0,228l40,13c72,22 79,19 146,-58zm-386,29c6,0 26,3 45,6c62,12 62,12 62,-229c-1,-121 -1,-225 -1,-232c-1,-17 -189,-11 -321,10c-102,16 -110,29 -48,81c24,20 71,63 106,95l63,59l-2,100c-1,56 2,106 6,112c4,8 20,9 43,5c20,-4 42,-7 47,-7z" id="svg_2"/>
   <path d="m2180,2551c-36,-9 -79,-26 -97,-39c-81,-58 -143,-166 -143,-251c0,-140 118,-279 252,-296c97,-12 152,1 221,54c147,111 172,303 55,431c-44,48 -103,87 -149,98c-26,7 -53,14 -60,16c-8,2 -43,-3 -79,-13zm138,-120c83,-42 118,-104 110,-195c-3,-37 -12,-63 -31,-88c-31,-40 -113,-88 -150,-88c-79,0 -181,87 -192,165c-13,81 34,168 110,208c41,22 108,21 153,-2z" id="svg_3"/>
  </g>
 </g>
</svg>

<?xml version="1.0" encoding="UTF-8" standalone="no" ?>
<!DOCTYPE svg PUBLIC "-//W3C//DTD SVG 1.1//EN" "http://www.w3.org/Graphics/SVG/1.1/DTD/svg11.dtd">
<svg xmlns="http://www.w3.org/2000/svg" xmlns:xlink="http://www.w3.org/1999/xlink" version="1.1" width="1080" height="1080" viewBox="0 0 1080 1080" xml:space="preserve">
<desc>Created with Fabric.js 5.2.4</desc>
<defs>
</defs>
<rect x="0" y="0" width="100%" height="100%" fill="transparent"></rect>
<g transform="matrix(1 0 0 1 540 540)" id="74bf52dd-7b4c-4fd7-8a85-baaef451e1f7"  >
</g>
<g transform="matrix(1 0 0 1 540 540)" id="e580bfec-8af5-4394-84d1-6f956eab0031"  >
<rect style="stroke: none; stroke-width: 1; stroke-dasharray: none; stroke-linecap: butt; stroke-dashoffset: 0; stroke-linejoin: miter; stroke-miterlimit: 4; fill: rgb(255,255,255); fill-rule: nonzero; opacity: 1;" vector-effect="non-scaling-stroke"  x="-540" y="-540" rx="0" ry="0" width="1080" height="1080" />
</g>
<g transform="matrix(3.44 0 0 3.44 538.16 538.59)"  >
<g style="" vector-effect="non-scaling-stroke"   >
		<g transform="matrix(0.13 0 0 -0.13 0 0)"  >
<path style="stroke: none; stroke-width: 1; stroke-dasharray: none; stroke-linecap: butt; stroke-dashoffset: 0; stroke-linejoin: miter; stroke-miterlimit: 4; fill: rgb(0,0,0); fill-rule: nonzero; opacity: 1;" vector-effect="non-scaling-stroke"  transform=" translate(-2240.47, -2245.3)" d="M 2145 3389 C 1876 3367 1631 3255 1438 3064 C 1366 2993 1250 2845 1250 2825 C 1250 2822 1238 2801 1224 2778 C 1209 2755 1194 2725 1190 2711 C 1185 2697 1172 2660 1161 2630 C 1114 2508 1098 2412 1097 2255 C 1096 2100 1105 2037 1151 1889 C 1176 1807 1241 1676 1303 1584 C 1358 1500 1495 1363 1587 1299 C 1663 1247 1799 1175 1844 1164 C 1860 1160 1885 1151 1899 1144 C 1913 1136 1937 1130 1952 1130 C 1967 1130 2001 1123 2027 1114 C 2089 1093 2347 1090 2435 1109 C 2468 1116 2515 1126 2540 1130 C 2581 1137 2692 1179 2730 1200 C 2738 1205 2763 1219 2785 1230 C 2807 1242 2831 1259 2838 1268 C 2846 1278 2867 1284 2898 1285 C 2970 1287 3020 1324 3020 1377 C 3020 1392 3045 1427 3088 1474 C 3291 1692 3385 1944 3384 2265 C 3383 2361 3378 2430 3365 2485 C 3341 2592 3336 2600 3294 2600 C 3238 2600 3233 2569 3271 2450 C 3288 2396 3300 2341 3298 2328 C 3293 2289 3266 2296 3230 2347 C 3181 2416 3112 2488 3063 2522 C 3039 2538 3020 2556 3020 2561 C 3020 2567 3034 2584 3052 2598 C 3069 2613 3098 2640 3117 2658 C 3138 2678 3161 2690 3178 2690 C 3229 2690 3289 2747 3290 2796 C 3290 2830 3242 2887 3204 2896 C 3150 2910 3090 2859 3090 2800 C 3090 2767 3081 2753 3022 2691 C 2985 2652 2950 2620 2944 2620 C 2937 2620 2927 2627 2919 2636 C 2903 2656 2757 2741 2710 2758 C 2611 2794 2586 2801 2533 2808 C 2454 2818 2450 2841 2518 2892 C 2545 2913 2615 2979 2673 3040 C 2732 3100 2784 3150 2789 3150 C 2804 3150 2819 3125 2829 3081 C 2840 3030 2859 3008 2911 2982 C 2948 2964 2951 2964 2988 2980 C 3045 3006 3080 3056 3080 3112 C 3080 3150 3074 3163 3045 3193 C 3014 3225 3003 3230 2965 3230 C 2941 3230 2910 3225 2896 3219 C 2875 3209 2863 3213 2803 3247 C 2765 3269 2725 3289 2715 3292 C 2704 3296 2670 3308 2640 3320 C 2553 3354 2447 3379 2363 3385 C 2320 3388 2276 3392 2265 3394 C 2254 3395 2200 3393 2145 3389 z M 2460 3267 C 2580 3241 2685 3206 2687 3190 C 2688 3182 2670 3160 2647 3142 C 2624 3123 2547 3051 2475 2980 L 2345 2852 L 2258 2853 C 2211 2854 2168 2858 2165 2862 C 2161 2866 2157 2962 2156 3076 C 2155 3261 2157 3283 2172 3289 C 2197 3298 2376 3285 2460 3267 z M 2057 3266 C 2061 3258 2064 3159 2062 3046 L 2059 2841 L 2027 2835 C 1927 2816 1890 2805 1843 2783 C 1814 2769 1785 2760 1779 2762 C 1770 2765 1767 2818 1767 2970 C 1768 3201 1766 3193 1851 3220 C 1875 3227 1927 3244 1965 3256 C 2048 3284 2047 3284 2057 3266 z M 1674 2914 C 1673 2801 1671 2707 1669 2706 C 1667 2704 1645 2692 1620 2680 C 1513 2626 1328 2459 1252 2347 C 1231 2315 1214 2300 1202 2302 C 1169 2308 1173 2329 1247 2565 C 1305 2751 1386 2876 1553 3037 C 1609 3091 1655 3128 1663 3125 C 1673 3120 1676 3078 1674 2914 z M 2386 2741 C 2397 2736 2430 2720 2460 2706 C 2596 2645 2709 2473 2724 2305 C 2739 2146 2672 1975 2552 1869 C 2458 1786 2368 1757 2222 1762 C 2120 1765 2109 1767 2037 1803 C 1837 1902 1727 2113 1759 2338 C 1774 2439 1837 2556 1914 2627 C 1987 2694 2073 2741 2140 2752 C 2200 2761 2363 2754 2386 2741 z M 1880 2688 C 1880 2681 1854 2647 1822 2613 C 1679 2461 1644 2264 1721 2050 C 1741 1993 1779 1939 1847 1872 C 1905 1814 1917 1790 1888 1790 C 1847 1790 1608 1938 1495 2033 C 1399 2115 1280 2232 1280 2246 C 1280 2256 1368 2349 1462 2435 C 1534 2503 1646 2583 1800 2678 C 1839 2702 1880 2707 1880 2688 z M 2702 2661 C 2775 2622 2915 2526 2975 2474 C 3078 2386 3200 2263 3200 2248 C 3200 2218 2856 1910 2824 1910 C 2820 1910 2809 1904 2801 1896 C 2792 1888 2745 1861 2697 1836 C 2613 1792 2570 1780 2570 1799 C 2570 1803 2603 1841 2643 1882 C 2729 1971 2764 2036 2790 2164 C 2807 2242 2808 2267 2799 2311 C 2793 2341 2785 2382 2780 2402 C 2768 2462 2724 2541 2665 2608 C 2635 2643 2610 2675 2610 2681 C 2610 2698 2650 2690 2702 2661 z M 1216 2192 C 1222 2188 1241 2165 1259 2140 C 1336 2033 1493 1893 1603 1835 C 1626 1822 1646 1805 1648 1797 C 1652 1778 1446 1570 1432 1579 C 1398 1602 1270 1834 1249 1915 C 1244 1931 1231 1979 1219 2020 C 1180 2160 1178 2170 1184 2185 C 1190 2201 1199 2204 1216 2192 z M 3298 2166 C 3300 2150 3292 2108 3281 2071 C 3270 2035 3249 1967 3234 1920 C 3195 1792 3158 1721 3065 1596 C 3006 1516 2985 1505 2946 1535 C 2934 1544 2913 1548 2886 1544 C 2846 1540 2843 1542 2756 1625 C 2699 1679 2670 1715 2673 1724 C 2676 1732 2701 1745 2727 1753 C 2864 1794 3096 1973 3214 2130 C 3274 2210 3292 2218 3298 2166 z M 1825 1724 C 1866 1708 1956 1686 2023 1675 L 2060 1669 L 2060 1583 L 2060 1497 L 1958 1391 C 1902 1333 1848 1284 1839 1282 C 1829 1280 1791 1295 1753 1315 C 1676 1357 1500 1485 1500 1500 C 1500 1506 1551 1561 1613 1624 C 1736 1748 1747 1753 1825 1724 z M 2631 1628 C 2666 1588 2702 1550 2710 1544 C 2768 1500 2785 1475 2786 1436 C 2786 1413 2790 1383 2794 1369 C 2801 1344 2798 1340 2706 1296 C 2653 1271 2604 1250 2596 1250 C 2588 1250 2557 1240 2526 1229 C 2496 1217 2465 1210 2458 1213 C 2448 1216 2445 1268 2445 1445 L 2445 1673 L 2485 1686 C 2557 1708 2564 1705 2631 1628 z M 2245 1657 C 2251 1657 2271 1660 2290 1663 C 2352 1675 2352 1675 2352 1434 C 2351 1313 2351 1209 2351 1202 C 2350 1185 2162 1191 2030 1212 C 1928 1228 1920 1241 1982 1293 C 2006 1313 2053 1356 2088 1388 L 2151 1447 L 2149 1547 C 2148 1603 2151 1653 2155 1659 C 2159 1667 2175 1668 2198 1664 C 2218 1660 2240 1657 2245 1657 z" stroke-linecap="round" />
</g>
		<g transform="matrix(0.13 0 0 -0.13 0.06 -2.31)"  >
<path style="stroke: none; stroke-width: 1; stroke-dasharray: none; stroke-linecap: butt; stroke-dashoffset: 0; stroke-linejoin: miter; stroke-miterlimit: 4; fill: rgb(0,0,0); fill-rule: nonzero; opacity: 1;" vector-effect="non-scaling-stroke"  transform=" translate(-2240.88, -2262.65)" d="M 2180 2551 C 2144 2542 2101 2525 2083 2512 C 2002 2454 1940 2346 1940 2261 C 1940 2121 2058 1982 2192 1965 C 2289 1953 2344 1966 2413 2019 C 2560 2130 2585 2322 2468 2450 C 2424 2498 2365 2537 2319 2548 C 2293 2555 2266 2562 2259 2564 C 2251 2566 2216 2561 2180 2551 z M 2318 2431 C 2401 2389 2436 2327 2428 2236 C 2425 2199 2416 2173 2397 2148 C 2366 2108 2284 2060 2247 2060 C 2168 2060 2066 2147 2055 2225 C 2042 2306 2089 2393 2165 2433 C 2206 2455 2273 2454 2318 2431 z" stroke-linecap="round" />
</g>
</g>
</g>
</svg>
